local/share/icons/dracula-icons-main/scalable/apps/aptana.svg

<?xml version="1.0" encoding="UTF-8"?>
<svg xmlns="http://www.w3.org/2000/svg" xmlns:xlink="http://www.w3.org/1999/xlink" width="64" height="64" viewBox="0 0 64 64">
<path fill-rule="nonzero" fill="rgb(92.156863%, 56.078431%, 22.745098%)" fill-opacity="1" d="M 59 32 C 59 46.910156 46.910156 59 32 59 C 17.089844 59 5 46.910156 5 32 C 5 17.089844 17.089844 5 32 5 C 46.910156 5 59 17.089844 59 32 Z M 59 32 "/>
<path fill-rule="nonzero" fill="rgb(100%, 100%, 100%)" fill-opacity="1" d="M 31.519531 16 C 30.625 16.035156 30.132812 16.332031 29.816406 16.976562 C 29.609375 17.390625 29.441406 18.078125 29.441406 18.507812 C 29.441406 20.078125 27.855469 21.507812 26.117188 21.507812 C 25.261719 21.507812 24.792969 21.273438 23.066406 19.980469 C 22.277344 19.390625 21.78125 19.542969 20.5625 20.746094 C 19.402344 21.886719 19.371094 22.433594 20.398438 23.796875 C 20.824219 24.359375 21.253906 25.109375 21.355469 25.464844 C 21.601562 26.347656 21.195312 27.960938 20.539062 28.675781 C 20.003906 29.261719 18.667969 29.71875 17.503906 29.71875 C 16.398438 29.71875 16 30.351562 16 32.09375 C 16 33.449219 16.050781 33.636719 16.519531 33.945312 C 16.800781 34.132812 17.625 34.375 18.347656 34.476562 C 19.066406 34.578125 19.902344 34.824219 20.195312 35.019531 C 20.816406 35.433594 21.539062 36.90625 21.542969 37.78125 C 21.546875 38.417969 21.058594 39.542969 20.554688 40.050781 C 20.003906 40.609375 19.605469 41.621094 19.75 42.082031 C 19.933594 42.675781 21.191406 43.941406 21.839844 44.191406 C 22.210938 44.335938 22.484375 44.292969 22.84375 44.035156 C 23.902344 43.285156 25.710938 42.472656 26.320312 42.472656 C 27.242188 42.472656 28.765625 43.285156 29.101562 43.953125 C 29.257812 44.269531 29.457031 45 29.539062 45.582031 C 29.742188 46.988281 30.0625 47.652344 30.597656 47.765625 C 30.84375 47.816406 31.234375 47.90625 31.46875 47.957031 C 31.703125 48.015625 32.230469 48.015625 32.644531 47.957031 C 33.714844 47.816406 34.285156 47.015625 34.464844 45.410156 C 34.628906 43.941406 34.765625 43.707031 35.847656 43.011719 C 36.945312 42.3125 37.804688 42.175781 38.648438 42.566406 C 39.347656 42.890625 39.632812 43.058594 40.78125 43.824219 C 41.625 44.386719 42.148438 44.292969 43.121094 43.402344 C 44.585938 42.066406 44.613281 41.484375 43.304688 39.953125 C 42.054688 38.496094 42.039062 36.707031 43.269531 35.328125 C 43.738281 34.804688 44.160156 34.621094 45.550781 34.339844 C 47.652344 33.921875 47.996094 33.578125 48 31.871094 C 48.007812 30.167969 47.734375 29.890625 45.761719 29.582031 C 43.882812 29.289062 43.28125 28.863281 42.625 27.375 C 42.074219 26.140625 42.226562 25.417969 43.398438 23.71875 C 43.996094 22.847656 44.296875 22.214844 44.226562 21.945312 C 44.074219 21.347656 42.128906 19.5625 41.628906 19.5625 C 41.398438 19.5625 40.785156 19.898438 40.265625 20.296875 C 38.828125 21.40625 37.976562 21.660156 36.75 21.328125 C 35.308594 20.945312 34.792969 20.335938 34.429688 18.574219 C 34.011719 16.554688 33.742188 16.191406 32.554688 16.054688 C 32.15625 16.011719 31.816406 15.992188 31.519531 16.003906 Z M 32 26 C 35.3125 26 38 28.6875 38 32 C 38 35.3125 35.3125 38 32 38 C 28.6875 38 26 35.3125 26 32 C 26 28.6875 28.6875 26 32 26 Z M 32 26 "/>
</svg>

<svg width="64" height="64" version="1.1" viewBox="0 0 64 64" xmlns="http://www.w3.org/2000/svg">
 <circle cx="32" cy="32" r="27" fill="#eb8f3a" style="paint-order:stroke fill markers"/>
 <path d="m31.518 16c-0.89265 0.03323-1.3833 0.3329-1.7031 0.97656-0.20517 0.41303-0.37286 1.1011-0.37305 1.5293-6.64e-4 1.5708-1.5866 3.0039-3.3262 3.0039-0.85354 0-1.3224-0.23496-3.0508-1.5293-0.78668-0.58914-1.2833-0.43592-2.5039 0.76562-1.1596 1.1417-1.1889 1.6884-0.16211 3.0508 0.42432 0.56317 0.85428 1.3138 0.95508 1.6699 0.24934 0.88058-0.15888 2.4925-0.81445 3.209-0.53733 0.5873-1.8717 1.0449-3.0352 1.0449-1.1064 0-1.5039 0.62987-1.5039 2.373 0 1.3574 0.052085 1.5427 0.51758 1.8516 0.28446 0.18891 1.1062 0.42787 1.8281 0.53125 0.72195 0.10338 1.5553 0.34766 1.8496 0.54297 0.62133 0.41241 1.3415 1.8884 1.3477 2.7637 0.0049 0.63542-0.48417 1.7589-0.98828 2.2695-0.54944 0.55653-0.95137 1.5694-0.80664 2.0312 0.18542 0.59173 1.4414 1.857 2.0918 2.1074 0.37254 0.1435 0.64318 0.10169 1.0039-0.1543 1.0573-0.75012 2.8662-1.5645 3.4766-1.5645 0.92017 0 2.4465 0.81207 2.7812 1.4805 0.15759 0.31482 0.35405 1.0487 0.4375 1.6289 0.2023 1.4071 0.52208 2.0693 1.0586 2.1836 0.24391 0.05169 0.6364 0.13945 0.87109 0.19336 0.2347 0.05538 0.7631 0.05538 1.1738 0 1.0713-0.14387 1.6423-0.94262 1.8223-2.5488 0.16452-1.4686 0.29937-1.7049 1.3809-2.3965 1.0982-0.70224 1.9578-0.83937 2.8027-0.44727 0.70054 0.32516 0.98369 0.49365 2.1328 1.2598 0.84194 0.56145 1.3666 0.46867 2.3398-0.42188 1.4634-1.3391 1.4929-1.9214 0.18164-3.4512-1.2481-1.4559-1.2623-3.2471-0.035156-4.623 0.46993-0.52687 0.89128-0.71014 2.2832-0.98828 2.1016-0.41992 2.4431-0.76311 2.4492-2.4688 0.0062-1.7036-0.26494-1.982-2.2383-2.291-1.8777-0.29402-2.4789-0.71825-3.1387-2.2051-0.54854-1.2363-0.39719-1.9608 0.77344-3.6582 0.60031-0.87036 0.89912-1.5056 0.83008-1.7734-0.1543-0.59764-2.0994-2.3809-2.5977-2.3809-0.23074 0-0.84515 0.3323-1.3652 0.73438-1.4346 1.1094-2.289 1.36-3.5156 1.0312-1.4413-0.38608-1.9543-0.99485-2.3184-2.7539-0.41805-2.0202-0.68764-2.3838-1.877-2.5195-0.39627-0.04554-0.73761-0.063815-1.0352-0.052735v-0.003906zm0.48242 10a6 6 0 0 1 6 6 6 6 0 0 1-6 6 6 6 0 0 1-6-6 6 6 0 0 1 6-6z" fill="#fff"/>
</svg>
